X:0067
T:The faithfull Shepherd.
M:2/4
L:1/16
Q:1/4=84
I: :: :: :: ::
% ^F G A B c ^c d e ^f g
Z:Jack Campin * www.campin.me.uk * 2009
K:G
G2BG A2A2|G2BG  A4|BdBG AcAF|G2B2 d2g2:|
B2dB c2c2|B2dB  c4|BdBG AcAF|G2B2 d2g2:|
g2ge f2fd|e2e^c d4|BdBG AcAF|G2B2d2g2 :|
B2B2c2c2 |B2B2  c4|BdBG AcAF|G2B2d2g2 :|
<end>
<start>
